X: 3114
T: SMOLANACH
Q:"Reel."
R: Reel.
%R:reel
B: James Kerr "Merry Melodies" v.3 p.14 #114
Z: 2016 John Chambers <jc:trillian.mit.edu>
M: C
L: 1/8
K: A
uf |\
eAcA (eA)c2 | fBdB fBBa |\
eAcA eAca | cAAB cAA :|\
a |\
fefa fedc | fBBc fBBa |
fefa feca | cAAB cAAa |\
fefa fedc | fBBc fBBa |\
fefa feca | cAAB cAA |]

%%sep 1 1 500
%%sep 1 1 500

